X: 20531
M: 1/4
L: 1/16
K: C
V: 1 staves=3
(ge) |\
c2c2 BcdB | cBcd c2(af) | d2d2 dedc | BcdB .G2(FE) |\
|: EF |\
.C2.c2.G2.e2 | c2g2g2 (fe) | d2ed cB[cA]B | (cB)(cd) c2 :|
V: 2
z2 |\
E2E2 DEFD | EDEF E2fd | B2B2 BcBA | DEFD E2DC |\
|: z2 |\
EDCD E2EC | DCB,C D2DB, | CG,CE GECG, | B,A,B,C B,2CB, |\
V: 3 clef=bass middle=d
z2 |\
c2c2 g2g2 | c2c2 e2f2 | g2g2 g2g2 | g2g2 g2z2 |\
f4 f4 | c4 c4 | g2g2 g2g2 | g2g2 G2 :|
|: z2 |\
c2c2 c2c2 | G2G2 G2G2 | c2c2 c2c2 | G2G2 G2G2 |\
c2c2 c2g2 | c2c2c2 z2 | g2g2 g2f2 | g2c2 c2 :|


